X:55
T:Dust on the Moose
M:C|
L:1/8
C:© P. Gitlitz, D. Nerad, M. Katz, W. Brown, C. Woolgrove and J. Grote
R:Reel
B:Giblitz Fancy
H:Written at the Chehalis Dance Camp for a very dusty moose head watching the diningroom.
K:Dm
"Dm"DCDF "Gm"G4|GBGF "Bb"DCB,C| "Dm"DCDF "Gm"G4|GFDC "Dm"D4|!
"Dm"DCDF "Gm"G4|GBGF "Bb"DCB,C| "Gm"G2F2"Bb"D2B,C|DCB,2 "Gm"G,4|!
"Dm"dcdf "Gm"g4|gbgf "Bb"dcBc|"Dm"dcdf "Gm"g4|gfdc "Dm"d4|!
"Dm"dcdf "Gm"g4|gaba "Dm"gfd2|"Gm"g2f2 "Bb"d2Bc|"Bb"dcB2  "Gm"G4|!
|:"F"[A4d4]"Dm"[A4d4]|dcAG F2D2|"F"[A4d4] "Dm"[A4d4]|dcAG "A7"A4|!
"F"[A4d4] "Dm"[A4d4]|defe d2c2|agfe fcdc|1"Dm"AG F2 "Gm"G4:|2"A7"AG F2 "Dm"D4|]
